svg/icon/steem.svg

<svg xmlns="http://www.w3.org/2000/svg" xmlns:xlink="http://www.w3.org/1999/xlink" width="32" height="32" viewBox="0 0 32 32">
  <defs>
    <linearGradient id="steem-c" x1="50%" x2="50%" y1="0%" y2="100%">
      <stop offset="0%" stop-color="#FFF" stop-opacity=".5"/>
      <stop offset="100%" stop-opacity=".5"/>
    </linearGradient>
    <circle id="steem-b" cx="16" cy="15" r="15"/>
    <filter id="steem-a" width="111.7%" height="111.7%" x="-5.8%" y="-4.2%" filterUnits="objectBoundingBox">
      <feOffset dy=".5" in="SourceAlpha" result="shadowOffsetOuter1"/>
      <feGaussianBlur in="shadowOffsetOuter1" result="shadowBlurOuter1" stdDeviation=".5"/>
      <feComposite in="shadowBlurOuter1" in2="SourceAlpha" operator="out" result="shadowBlurOuter1"/>
      <feColorMatrix in="shadowBlurOuter1" values="0 0 0 0 0   0 0 0 0 0   0 0 0 0 0  0 0 0 0.199473505 0"/>
    </filter>
    <path id="steem-e" d="M9.86984444,7.22893617 C10.0860222,7.26553192 9.54811111,8.69829787 9.84831111,10.3357447 C10.1071333,11.7387234 13.3548667,17.1723404 13.2210222,19.0357447 C13.1171556,20.2059574 10.4504,22.9506383 10.1700444,22.7676596 C9.86308889,22.6829787 10.9798667,20.8178723 10.5656667,19.2638298 C10.0843333,17.4519149 7.22588889,12.7676596 7.22926667,10.7 C7.22926667,9.18723404 9.67688889,7.13106383 9.86984444,7.22893617 Z M15.9789778,5.08978723 C16.2525778,5.13617021 15.5681556,6.96468085 15.9506889,9.04765957 C16.2804444,10.8395745 20.4237111,17.7676596 20.2522889,20.1429787 C20.1184444,21.6374468 16.7195556,25.1344681 16.3598222,24.9021277 C15.9705333,24.7957447 17.3938444,22.4170213 16.8660667,20.4353192 C16.2525778,18.1268085 12.6075333,12.1527659 12.6109111,9.51617021 C12.6109111,7.58468085 15.7332444,4.96510638 15.9789778,5.08978723 Z M22.2840222,7.22893617 C22.5002,7.26553192 21.9627111,8.69829787 22.2624889,10.3357447 C22.5217333,11.7387234 25.7690444,17.1723404 25.6356222,19.0357447 C25.5334444,20.2059574 22.8662667,22.9506383 22.5842222,22.7676596 C22.2776889,22.6829787 23.3940444,20.8178723 22.9802667,19.2638298 C22.4985111,17.4519149 19.6404889,12.7676596 19.6434444,10.7 C19.6434444,9.18723404 22.0927556,7.13106383 22.2840222,7.22893617 Z"/>
    <filter id="steem-d" width="119%" height="117.7%" x="-9.5%" y="-6.3%" filterUnits="objectBoundingBox">
      <feOffset dy=".5" in="SourceAlpha" result="shadowOffsetOuter1"/>
      <feGaussianBlur in="shadowOffsetOuter1" result="shadowBlurOuter1" stdDeviation=".5"/>
      <feColorMatrix in="shadowBlurOuter1" values="0 0 0 0 0   0 0 0 0 0   0 0 0 0 0  0 0 0 0.204257246 0"/>
    </filter>
  </defs>
  <g fill="none" fill-rule="evenodd">
    <use fill="#000" filter="url(#steem-a)" xlink:href="#steem-b"/>
    <use fill="#4BA2F2" xlink:href="#steem-b"/>
    <use fill="url(#steem-c)" style="mix-blend-mode:soft-light" xlink:href="#steem-b"/>
    <circle cx="16" cy="15" r="14.5" stroke="#000" stroke-opacity=".097"/>
    <g fill-rule="nonzero">
      <use fill="#000" filter="url(#steem-d)" xlink:href="#steem-e"/>
      <use fill="#FFF" fill-rule="evenodd" xlink:href="#steem-e"/>
    </g>
  </g>
</svg>

<svg xmlns="http://www.w3.org/2000/svg" xmlns:xlink="http://www.w3.org/1999/xlink" width="32" height="32"><defs><linearGradient id="c" x1="50%" x2="50%" y1="0%" y2="100%"><stop offset="0%" stop-color="#FFF" stop-opacity=".5"/><stop offset="100%" stop-opacity=".5"/></linearGradient><circle id="b" cx="16" cy="15" r="15"/><filter id="a" width="111.7%" height="111.7%" x="-5.8%" y="-4.2%" filterUnits="objectBoundingBox"><feOffset dy=".5" in="SourceAlpha" result="shadowOffsetOuter1"/><feGaussianBlur in="shadowOffsetOuter1" result="shadowBlurOuter1" stdDeviation=".5"/><feComposite in="shadowBlurOuter1" in2="SourceAlpha" operator="out" result="shadowBlurOuter1"/><feColorMatrix in="shadowBlurOuter1" values="0 0 0 0 0 0 0 0 0 0 0 0 0 0 0 0 0 0 0.199473505 0"/></filter><path id="e" d="M9.87 7.229c.216.037-.322 1.47-.022 3.107.26 1.403 3.507 6.836 3.373 8.7-.104 1.17-2.77 3.915-3.051 3.732-.307-.085.81-1.95.396-3.504-.482-1.812-3.34-6.496-3.337-8.564 0-1.513 2.448-3.569 2.64-3.471zm6.109-2.14c.274.047-.41 1.876-.028 3.959.33 1.792 4.473 8.72 4.301 11.095-.134 1.494-3.532 4.991-3.892 4.76-.39-.107 1.034-2.486.506-4.468-.613-2.308-4.258-8.282-4.255-10.919 0-1.931 3.122-4.55 3.368-4.426zm6.305 2.14c.216.037-.321 1.47-.022 3.107.26 1.403 3.507 6.836 3.374 8.7-.103 1.17-2.77 3.915-3.052 3.732-.306-.085.81-1.95.396-3.504-.481-1.812-3.34-6.496-3.337-8.564 0-1.513 2.45-3.569 2.641-3.471z"/><filter id="d" width="119%" height="117.7%" x="-9.5%" y="-6.3%" filterUnits="objectBoundingBox"><feOffset dy=".5" in="SourceAlpha" result="shadowOffsetOuter1"/><feGaussianBlur in="shadowOffsetOuter1" result="shadowBlurOuter1" stdDeviation=".5"/><feColorMatrix in="shadowBlurOuter1" values="0 0 0 0 0 0 0 0 0 0 0 0 0 0 0 0 0 0 0.204257246 0"/></filter></defs><g fill="none" fill-rule="evenodd"><use fill="#000" filter="url(#a)" xlink:href="#b"/><use fill="#4BA2F2" xlink:href="#b"/><use fill="url(#c)" style="mix-blend-mode:soft-light" xlink:href="#b"/><circle cx="16" cy="15" r="14.5" stroke="#000" stroke-opacity=".097"/><g fill-rule="nonzero"><use fill="#000" filter="url(#d)" xlink:href="#e"/><use fill="#FFF" fill-rule="evenodd" xlink:href="#e"/></g></g></svg>
